public/mascots/dropout/bear-yeezus-256x256.svg

<svg xmlns="http://www.w3.org/2000/svg" width="256" height="256" viewBox="0 0 256 256"><defs><linearGradient id="a" x1="0%" x2="100%" y1="0%" y2="100%"><stop offset="0%" style="stop-color:#8b4513"/><stop offset="100%" style="stop-color:#654321"/></linearGradient></defs><ellipse cx="128" cy="240" opacity=".1" rx="50" ry="10"/><circle cx="80" cy="64" r="32" fill="url(#a)"/><circle cx="176" cy="64" r="32" fill="url(#a)"/><ellipse cx="128" cy="96" fill="url(#a)" rx="64" ry="56"/><path fill="#fff" d="M64 80q64-32 128 0 8 32 0 48-64 16-128 0-8-16 0-48"/><path fill="none" stroke="#ddd" stroke-width="2" d="M64 80q64 32 128 0"/><ellipse cx="128" cy="112" fill="#deb887" rx="32" ry="24"/><ellipse cx="128" cy="104" fill="#333" rx="12" ry="10"/><path stroke="#333" stroke-width="3" d="m88 92 24-4M144 88l24 4"/><path fill="#fff" d="M80 144q0-24 48-32 48 8 48 32 0 64-48 80-48-16-48-80"/><path fill="none" stroke="#ccc" stroke-width="2" d="M96 160q32 16 64 0M88 192q40 8 80 0"/><path fill="#fff" d="M80 160q-16 16-8 32t24 0M176 160q16 16 8 32t-24 0"/><circle cx="80" cy="200" r="10" fill="#8b4513"/><circle cx="176" cy="200" r="10" fill="#8b4513"/></svg>

<svg xmlns="http://www.w3.org/2000/svg" viewBox="0 0 256 256" width="256" height="256">
  <defs>
    <linearGradient id="yeeBearBrown256" x1="0%" y1="0%" x2="100%" y2="100%">
      <stop offset="0%" style="stop-color:#8B4513"/>
      <stop offset="100%" style="stop-color:#654321"/>
    </linearGradient>
  </defs>
  <ellipse cx="128" cy="240" rx="50" ry="10" fill="#000" opacity="0.1"/>
  <circle cx="80" cy="64" r="32" fill="url(#yeeBearBrown256)"/>
  <circle cx="176" cy="64" r="32" fill="url(#yeeBearBrown256)"/>
  <ellipse cx="128" cy="96" rx="64" ry="56" fill="url(#yeeBearBrown256)"/>
  <path d="M64 80 Q128 48 192 80 Q200 112 192 128 Q128 144 64 128 Q56 112 64 80Z" fill="#FFF"/>
  <path d="M64 80 Q128 112 192 80" fill="none" stroke="#DDD" stroke-width="2"/>
  <ellipse cx="128" cy="112" rx="32" ry="24" fill="#DEB887"/>
  <ellipse cx="128" cy="104" rx="12" ry="10" fill="#333"/>
  <path d="M88 92 L112 88" stroke="#333" stroke-width="3"/>
  <path d="M144 88 L168 92" stroke="#333" stroke-width="3"/>
  <path d="M80 144 Q80 120 128 112 Q176 120 176 144 Q176 208 128 224 Q80 208 80 144Z" fill="#FFF"/>
  <path d="M96 160 Q128 176 160 160" fill="none" stroke="#CCC" stroke-width="2"/>
  <path d="M88 192 Q128 200 168 192" fill="none" stroke="#CCC" stroke-width="2"/>
  <path d="M80 160 Q64 176 72 192 Q80 208 96 192" fill="#FFF"/>
  <path d="M176 160 Q192 176 184 192 Q176 208 160 192" fill="#FFF"/>
  <circle cx="80" cy="200" r="10" fill="#8B4513"/>
  <circle cx="176" cy="200" r="10" fill="#8B4513"/>
</svg>
